X:1
T:Alfhlyra
T:Alfhlyra
T:Troubled Kingdom of Dark Elves
%%score { 1 | 2 }
L:1/8
Q:1/4=110
M:4/4
K:G
V:1 treble nm="Piano" snm="Pno."
V:2 bass 
V:1
"^Moderato" [CE]2 [EG]2 [FA]2 [GB]2 | E2 [EG]2 [FA]2 [^DF]2 | E2 [EG]2 [FA]2 [GB]2 | %3
 [Ac][GB] [FA]2 [^DFA][EG] [DF]2 | [CEe]2 [EG]2 [FAB]2 [GB]2 | [EGg]2 [EG]2 [FA]2 [Ff]2 | %6
 [CEe]2 [EG]2 [FA]2 [GB]2 | [Ac][GB] [FA]2 [^DFA][EG] [DF]2 | [G,G]4 [B,B]4 | %9
 [E,E]2 [G,G]2 [Ee]2 B,2 | [_B,^CF_B]4[K:bass] [F,B,]2 [F,F]2 | [^C,^C]4 [C,F,_B,]2 [C,C][^D,^D] | %12
 [E,CE]4 [F,A,CF]4 |[K:treble] [G,EGA]4 [Ac]4 | [EGB]4 [EGe]2 FE | [^DF^d]4 [G,DG]2 [A,A]2 | %16
 [B,EGB]4 [Ee]3 [Ff] | [GBeg]2 [Ff]2 [Gg]2 [Ee]2 | [CDFd]4 [CD]2 [EGe]2 | [CEc]4 [CE]4 | %20
 [CEAc]4 [EAe]4 | [Beb]2 [cc']2 [Ee]2 [Aa]2 | [GBeg]4 [EG]2 [Ff][Ee] | [FB^df]4 [B,^DF]2 Bc | %24
 B4 E3 G | [DFA]2 G2 F2 E2 | [G,B,D]6 B,2 | [B,F]3 [B,G]3 Bc | B4 E3 F | [DFA]2 G2 A2 B2 | %30
 [B,E^G]4 [B,E]4 | [EF]4 [E^G]2 Bd | [Ee]GdG BGG[de] | [Ff]AeA dA[Fc]d | [FB]BdB fBaf | %35
 [EGe]B[Fe][GB] [Geg][Bf][Gd]B | [Ee]B[EGd]B [ce]G[EB]G | [DFA]AdA [ef]dGd | [FAB]BdB fdaf | %39
 [EGBe]BeB [Bg]f[Dd]c | [Ee]EG[CE] [Cc]GE[Ge] | [Ada]A [Gdg]2 [Fdf]A[Ee][Dd] | %42
 [DFBd][B,F][DB][B,F] fd[Ba][Ff] | [EGBe]B[Ge]B [GBeg]f[B,GB][CEc] | [B,GB]E[B,G]E [B,A]GEF | %45
 [G,DG]C[Gc]E [Ge][Ec][A,GA]E | [EFc]2 [EF]2 [^DB^d]FD[B,F] | %47
 [EFBe]e[EFBe]e [^DFB^d][Dd][DFBd][Dd] | [G,B,EG]2 [G,B,]E, [B,GB]E[B,GB]E | %49
 [E,E][B,E]G[B,E] [CFA][Ec][B,GB]E | [_B,F_B]^CFC [F^c]B[cf]c | [F_Bf]^c[FBf]c [FBf]c[^CFB][^Dc] | %52
 [E,A,E][A,C]E[A,C] [Fc]E[Fce]E | [G,G][CE][A,A][CE] [A,A]E[Gce]E | [G,B,EG]2 [GB]E [Be]G[eg]B | %55
 [^DFB^d]F[DB]F [G,B,DG]G [A,DFA]2 | [B,EGB]2 E2 [EGBe]2 B[Ff] | [GBg]2 [FBf]2 [GBg]E [EBe]2 | %58
 [CDFd]2 [Fce]2 [ce]F [EGe]2 | [CEGc]E[Gc]E [Fce]E[cg]E | [CEAc]2 AE [EAce]E[FAe]E | %61
 [Beb]c[cec']c [EGAe]2 [Aea]2 | [GBg]E[GB][B,E] [EBe]E[FBf][Ee] | [FB^df]^D[FB]D [FBd]D[FBdf]D |] %64
V:2
 E,,B,,E,B, F,B,G,B, | E,,B,,E,B, F,B,^D,B, | E,,B,,E,B, F,B,G,B, | E,,B,,F,B,, B,B,,^D,B,, | %4
 E,,B,,E,B, F,B,G,B,, | E,,B,,E,B, F,B,^D,B,, | E,,B,,E,B, F,B,A,B,, | E,,B,,E,B,, F,B,,^D,B,, | %8
 [E,,,E,,]4 E,,3 B,,, | [E,,,E,,]4 [E,C]2 E,,2 | [F,,,F,,]3 F,, ^C,3 ^C,, | %11
 [F,,,F,,]3 F,,2 ^C,,F,,^D,, | [A,,,A,,]7 E,, | [A,,,A,,]4 [E,A,]2 [A,,,A,,]2 | %14
 [B,,,B,,]3 F,, B,,2 F,E, | [B,,F,]3 F,, B,,B,,,F,,B,, | [E,,,E,,]3 B,, [E,B,]2 E,,B,,, | %17
 [E,,,E,,]4 [E,B,]2 D,,2 | [C,,C,]3 G,, [C,,C,]3 G,, | [C,,C,]3 G,, F,G,,C,G,, | %20
 [A,,,A,,]4 [A,,E,A,]3 E,, | [A,,,A,,]2 [F,,F,]2 [G,,G,]2 [A,,A,]2 | [B,,,B,,]4 [B,,E,]3 F,, | %23
 [B,,,B,,]3 F,, B,,4 | [C,,C,]3 G,, C,2 G,,C, | D,3 A,, D,2 A,,2 | B,,3 F,, B,,2 F,,2 | %27
 E,,3 B,,, E,,F,, G,,2 | [C,,C,]3 G,, C,2 G,,C, | D,3 A,, D,2 A,,2 | E,,3 B,, E,2 B,,2 | %31
 E,,3 B,, E,2 D,,2 | [C,,C,]3 G,, C,2 G,,C, | [D,,D,]3 A,, D,2 A,,2 | [B,,,B,,]3 F,, B,,2 F,,2 | %35
 [E,,E,]3 B,, [E,,E,][F,,F,] [G,,G,]2 | [C,,C,]3 G,, [C,,C,]2 G,,C, | [D,,D,]3 A,, D,2 A,,2 | %38
 [E,,E,]3 B,, [E,B,D]2 B,,2 | [E,,E,]3 B,, [E,B,]2 [D,,D,]2 | %40
 [C,,C,]G,,[C,G,]G,, [C,,C,]C,G,,[C,C] | [D,,D,]A,D[A,,A,] [D,D][A,D] A,,2 | %42
 [B,,,B,,]3 F,, [B,,,B,,]2 F,,B,,, | E,,3 B,,, E,,F,, G,,2 | [C,,C,]3 G,, [C,,C,]2 C,,G,, | %45
 [C,,C,]3 G,, [C,,C,]2 G,,2 | [B,,,B,,]F,B,F, [B,,B,]2 F,,2 | %47
 [B,,,B,,]B,, B,,F,,/B,,,/ [B,,,B,,][B,,,B,,]F,,B,,, | [E,,A,,E,]4 [G,,B,,G,]3 B,,, | %49
 [E,,,E,,C,]2 [G,,G,]2 [B,,,C,]2 [E,,B,,]2 | [F,,,F,,]^C,F,F,, [C,F,_B,]2 F,C, | %51
 [F,,^C,F,]C, F,[F,,,F,,]/[F,,,F,,]/ [F,,,F,,]^C,,[F,,C,][^D,,^D,] | %52
 [A,,,A,,]2 [A,,E,]2 [F,,F,]E,A,,E,, | [A,,,A,,]2 E,,2 A,,2 A,,,2 | %54
 [B,,,B,,]7/2 [B,,,B,,]/ [B,,,B,,]2 [F,,F,][E,,E,] | %55
 [B,,F,]2 B,,[B,,,B,,]/[B,,,B,,]/ [B,,,B,,]F,, [B,,,B,,]2 | [E,,,E,,]B,,G,[B,,B,] G,B,,G,,B,,, | %57
 [E,,,E,,]B,,[E,,E,]B,, E,,2 B,,,E,, | [C,,,C,,]G,,C,G,, E,C,C,,G,,, | %59
 [C,,,C,,]G,, G,,C,,/C,,/ [C,,C,]2 [B,,,B,,]2 | [A,,,A,,]C,E,C, [E,A,C]2 A,,,E,,, | %61
 [A,,,A,,]E,, [F,,F,]2 [G,,G,]2 [A,,A,]2 | [B,,,B,,]3 [B,,,B,,]/[B,,,B,,]/ [B,,,B,,]3!8vb(! F,,, | %63
 [B,,,,B,,,]3!8vb)! [B,,,B,,]/[B,,,B,,]/ [B,,,B,,][B,,,B,,] [B,,,B,,]2 |] %64

